X:1
T:Title
%%score 1 2 3
L:1/8
Q:1/4=100
M:3/4
K:C
V:1 bass nm="MusicXML Part"
V:2 bass nm="MusicXML Part"
V:3 bass nm="MusicXML Part"
V:1
 G,6 | E,4 G,2 | A,6 | z _B,- B,A, B,G, | F,4 z2 | G,F, G,_E, E,2 | _D,C, D,_B,, B,,2 | %7
w: 1.4.7.Fu-||meux|||||
w: 3.Qu'an-||tre|||||
w: 5.Quar||fu-|||||
[M:2/4] F,4 | E,4 | _D,2 C,2 | _B,,2 C,2 | D,4 | F,E,- E,D, |[M:3/4] F,6- | F,4 E,F, | %15
w: ||||||fu-||
w: ||||||fum||
w: ||||||mer||
 G,2 _A,2 z G, | F,2 _G,2 z F, | _E,2 F,2 z E, | _D,2 _E,2 z D, | C,2 _D,2 z C, | _B,,2 C,2 z A,, | %21
w: me * *||||par * fu-|* * me-|
w: met * *||||sa * pen-|* * se-|
w: molt * *||||li * a-|* * gre-|
 _B,,6 ||[M:2/4] _B,2 C2 | B,2 B,2 | CB,- B,A, | C2 D2 | CB,- B,A, | ^G,4 | A,G,- G,F, | E,4 | %30
w: e|2.8.Fu- *|meu- *|se * * *||||||
w: e|6.Tant *|qu'il *|ait * * *||||||
w: e|||||||||
 F,_E,- E,D, | ^C,4 | D,C,- C,_B,, | A,,4 | _B,,C, B,,C, | A,,4 | A,,2 z2 | E,2 F,2 | G,2 A,2 | %39
w: |||||||||
w: |||||||||
w: |||||||||
 B,2 C2 | _B,_A,- A,G, | F,2 D,2 | F,4 |] %43
w: |spe- * * cu-|la- ci-|on.|
w: |son * * en-|ten- ci-|on.|
w: ||||
V:2
 D,3 E,- E,D, | ^C,4 z2 | D,C,- C,A,,- A,,_B,, | G,,6 | z B,,- B,,B,,- B,,B,, | C,2 z2 _A,,2 | %6
 z F,, F,,2 _B,,2 |[M:2/4] z C,- C,C, | B,,4 | z F,- F,E, | G,D,- D,C, | B,,4 | A,,2 G,,2 | %13
[M:3/4] D,2 C,4 | C,6 | z E, F,2 D,2 | z C, C,2 _B,,2 | z _E, D,2 C,2 | z F, G,2 F,2 | %19
 z F,, _B,,2 C,2 | z D, _E,2 D,2 | _E,6 ||[M:2/4] _E,,4 | G,,4 | D,E, F,E, | F,2 z2 | G,,3 G,, | %27
 ^C,4 | F,,3 G,, | B,,4 | A,,3 _B,, | ^F,4 | G,3 F, | E,4 | D,3 D, | C,4- | C,4 | C,2 z2 | %38
 D,E,- E,D, | E,2 F,2 | F,,2 _A,,_B,, | D,C,- C,B,, | C,4 |] %43
V:3
 G,,2 _B,,4 | A,,6 | C,2 ^F,4 | G,6 | D,6 | C,2 C,3 C, | F,3 F,- F,F, |[M:2/4] F,,2 A,,2 | G,,4 | %9
 _B,,2 A,,2 | G,,2 F,,2 | B,,F,- F,B,, | C,2 A,,B,, |[M:3/4] z F,, F,,4 | _A,,6 | %15
 G,,2 z F,, _B,,2 | _A,,2 z _E, _D,2 | C,2 z _B,, C,2 | _B,,2 z A,, B,,2 | A,,2 z G,, A,,2 | %20
 G,,2 z F,, F,,2 | _E,,6 ||[M:2/4] _E,4 | D,4 | G,,4 | F,,2 F,2 | G,2 F,2 | E,4 | F,2 _B,,2 | %29
 G,,4 | C,2 _B,,2 | A,,4 | _B,,2 D,2 | C,4 | G,,4 | A,,2 z E, | F,E, D,E, | A,,4 | B,,2 A,,2 | %39
 G,,2 F,,2 | F,4 | F,,2 G,,2 | F,,4 |] %43

